app/assets/img/work/ttl-gimbap-sp.svg

<svg fill="none" height="25" viewBox="0 0 157 25" width="157" xmlns="http://www.w3.org/2000/svg"><path d="m10.478 16.828c.6067 0 1.144-.052 1.612-.156s.91-.2427 1.326-.416v-2.873h-1.872c-.2773 0-.494-.0737-.65-.221s-.234-.3337-.234-.559v-2.418h6.734v7.995c-.4853.3553-.9923.663-1.521.923-.52.2513-1.079.4593-1.677.624-.5893.1647-1.222.286-1.898.364-.6673.078-1.3867.117-2.158.117-1.38667 0-2.66933-.2427-3.848-.728-1.17867-.494-2.20133-1.17-3.068-2.028-.858-.8667-1.534-1.8893-2.028-3.068-.485333-1.1873-.728-2.4743-.728-3.861 0-1.41267.234-2.70833.702-3.887.468-1.18733 1.13533-2.21 2.002-3.068.87533-.858 1.92833-1.52533 3.159-2.002 1.23933-.47667 2.62167-.715001 4.147-.715001.7887 0 1.5297.065 2.223.195001.6933.13 1.3303.30767 1.911.533.5893.22533 1.1267.494 1.612.806s.9187.65 1.3 1.014l-1.274 1.937c-.1213.182-.2687.325-.442.429-.1647.104-.3467.156-.546.156-.26 0-.5287-.08667-.806-.26-.3467-.208-.676-.38567-.988-.533-.3033-.156-.6153-.28167-.936-.377s-.6587-.16467-1.014-.208-.754-.065-1.196-.065c-.82333 0-1.56433.14733-2.223.442-.65867.286-1.222.69333-1.69 1.222-.45933.52867-.81467 1.16567-1.066 1.911-.25133.73667-.377 1.56-.377 2.47 0 1.0053.13867 1.898.416 2.678s.65867 1.4387 1.144 1.976c.494.5373 1.07467.949 1.742 1.235.676.2773 1.41267.416 2.21.416zm14.0118-10.309v13.481h-4.03v-13.481zm.468-3.692c0 .32067-.065.624-.195.91-.13.27733-.3077.52433-.533.741-.2254.208-.4897.377-.793.507-.2947.12133-.611.182-.949.182-.3294 0-.637-.06067-.923-.182-.286-.13-.5417-.299-.767-.507-.2167-.21667-.39-.46367-.52-.741-.1214-.286-.182-.58933-.182-.91 0-.32933.0606-.637.182-.923.13-.286.3033-.53733.52-.754.2253-.216667.481-.385667.767-.507001.286-.121333.5936-.181999.923-.181999.338 0 .6543.060666.949.181999.3033.121334.5676.290334.793.507001.2253.21667.403.468.533.754s.195.59367.195.923zm3.046 17.173v-13.481h2.496c.2514 0 .4594.05633.624.169.1734.11267.2947.28167.364.507l.221.728c.2254-.234.4594-.44633.702-.637.2427-.19933.5027-.36833.78-.507.286-.14733.5894-.26.91-.338.3294-.08667.689-.13 1.079-.13.8147 0 1.4864.21233 2.015.637.5374.416.9447.975 1.222 1.677.2254-.416.4984-.77133.819-1.066.3294-.29467.6804-.533 1.053-.715.3814-.182.78-.31633 1.196-.403.4247-.08667.845-.13 1.261-.13.7714 0 1.456.117 2.054.351.598.22533 1.0964.559 1.495 1.001.4074.43333.715.97067.923 1.612.208.63267.312 1.352.312 2.158v8.567h-4.03v-8.567c0-1.3953-.598-2.093-1.794-2.093-.546 0-1.001.182-1.365.546-.3553.3553-.533.871-.533 1.547v8.567h-4.03v-8.567c0-.7713-.1516-1.313-.455-1.625-.3033-.312-.7496-.468-1.339-.468-.364 0-.7106.08233-1.04.247-.3206.16467-.624.38567-.91.663v9.75zm22.6546 0v-19.461001h4.03v7.410001c.5026-.494 1.0703-.88833 1.703-1.183.6413-.30333 1.391-.455 2.249-.455.702 0 1.352.15167 1.95.455s1.1136.74967 1.547 1.339c.4333.58067.7713 1.29567 1.014 2.145.2513.8493.377 1.8157.377 2.899 0 1.014-.143 1.95-.429 2.808-.2774.858-.6717 1.6033-1.183 2.236-.5027.6327-1.1094 1.1267-1.82 1.482-.702.3553-1.482.533-2.34.533-.3987 0-.7584-.039-1.079-.117-.312-.078-.6024-.1863-.871-.325-.26-.1473-.5027-.3207-.728-.52-.2167-.1993-.429-.416-.637-.65l-.143.676c-.0607.2773-.1734.468-.338.572-.156.104-.364.156-.624.156zm6.578-10.66c-.2947 0-.5634.03033-.806.091-.234.052-.455.13-.663.234-.1994.104-.3857.23833-.559.403-.1734.156-.3467.338-.52.546v5.72c.3033.338.6326.5763.988.715.3553.13.728.195 1.118.195.3726 0 .715-.0737 1.027-.221s.5806-.3813.806-.702c.234-.3293.416-.754.546-1.274s.195-1.1527.195-1.898c0-.7107-.052-1.3087-.156-1.794s-.2514-.8753-.442-1.17c-.182-.30333-.403-.52-.663-.65s-.5504-.195-.871-.195zm18.072 10.66c-.3813 0-.6717-.052-.871-.156-.1907-.104-.351-.3207-.481-.65l-.286-.741c-.338.286-.663.5373-.975.754s-.637.403-.975.559c-.3293.1473-.6847.2557-1.066.325-.3727.078-.7887.117-1.248.117-.6153 0-1.1743-.078-1.677-.234-.5027-.1647-.9317-.403-1.287-.715-.3467-.312-.6153-.6977-.806-1.157-.1907-.468-.286-1.0053-.286-1.612 0-.4767.1213-.9663.364-1.469s.663-.9577 1.261-1.365c.598-.416 1.404-.7627 2.418-1.04s2.2923-.4333 3.835-.468v-.572c0-.7887-.1647-1.3563-.494-1.703-.3207-.35533-.78-.533-1.378-.533-.4767 0-.8667.052-1.17.156s-.5763.221-.819.351c-.234.13-.4637.247-.689.351s-.494.156-.806.156c-.2773 0-.5157-.065-.715-.195-.1907-.1387-.3423-.30767-.455-.507l-.728-1.261c.8147-.71933 1.716-1.25233 2.704-1.599.9967-.35533 2.0627-.533 3.198-.533.8147 0 1.547.13433 2.197.403.6587.26 1.2133.62833 1.664 1.105.4593.468.8103 1.027 1.053 1.677s.364 1.3607.364 2.132v8.424zm-4.628-2.457c.52 0 .975-.091 1.365-.273s.7843-.4767 1.183-.884v-1.872c-.806.0347-1.469.104-1.989.208s-.9317.234-1.235.39-.5157.3337-.637.533c-.1127.1993-.169.416-.169.65 0 .4593.1257.7843.377.975.2513.182.6197.273 1.105.273zm9.5956 6.734v-17.758h2.496c.2514 0 .4594.05633.624.169.1734.11267.2947.28167.364.507l.299.988c.26-.286.5374-.546.832-.78.3034-.234.624-.43333.962-.598.3467-.17333.715-.30767 1.105-.403.3987-.09533.832-.143 1.3-.143.702 0 1.352.156 1.95.468s1.1137.76267 1.547 1.352c.4334.58933.7714 1.313 1.014 2.171.2514.8493.377 1.8157.377 2.899 0 1.014-.143 1.95-.429 2.808-.2773.858-.6716 1.6033-1.183 2.236-.5026.6327-1.1093 1.1267-1.82 1.482-.702.3553-1.482.533-2.34.533-.702 0-1.2913-.0997-1.768-.299-.4766-.1993-.91-.468-1.3-.806v5.174zm6.578-14.937c-.2946 0-.5633.03033-.806.091-.234.052-.455.13-.663.234-.1993.104-.3856.23833-.559.403-.1733.156-.3466.338-.52.546v5.72c.3034.338.6327.5763.988.715.3554.13.728.195 1.118.195.3727 0 .715-.0737 1.027-.221s.5807-.3813.806-.702c.234-.3293.416-.754.546-1.274s.195-1.1527.195-1.898c0-.7107-.052-1.3087-.156-1.794s-.2513-.8753-.442-1.17c-.182-.30333-.403-.52-.663-.65s-.5503-.195-.871-.195zm26.728 5.759c.104 0 .208.0217.312.065.104.0347.203.0997.299.195l1.742 1.833c-.763.9967-1.721 1.7507-2.873 2.262-1.144.5027-2.501.754-4.069.754-1.439 0-2.73-.2427-3.874-.728-1.136-.494-2.102-1.17-2.899-2.028-.789-.8667-1.396-1.8893-1.82-3.068-.4251-1.1873-.6374-2.4743-.6374-3.861 0-1.41267.2424-2.70833.7284-3.887.485-1.18733 1.161-2.21 2.028-3.068.875-.858 1.919-1.52533 3.133-2.002 1.213-.47667 2.552-.715001 4.017-.715001.71 0 1.378.065 2.002.195001.632.12133 1.222.29467 1.768.52.546.21667 1.048.481 1.508.793.459.30333.866.64133 1.222 1.014l-1.482 1.989c-.096.12133-.208.234-.338.338-.13.09533-.312.143-.546.143-.156 0-.304-.03467-.442-.104-.139-.06933-.286-.15167-.442-.247-.156-.104-.33-.21233-.52-.325-.182-.12133-.403-.22967-.663-.325-.252-.104-.551-.19067-.897-.26-.338-.06933-.737-.104-1.196-.104-.798 0-1.526.143-2.184.429-.659.27733-1.227.68033-1.703 1.209-.468.52-.837 1.15267-1.105 1.898-.26.74533-.39 1.58167-.39 2.509 0 .9707.13 1.833.39 2.587.268.754.628 1.391 1.079 1.911.459.5113.992.9013 1.599 1.17.606.2687 1.256.403 1.95.403.398 0 .762-.0173 1.092-.052.329-.0433.632-.1127.91-.208.286-.0953.554-.2167.806-.364.26-.156.52-.3467.78-.572.104-.0867.216-.156.338-.208.121-.0607.247-.091.377-.091zm4.621 4.901v-19.461001h4.03v7.163001c.485-.416 1.009-.74967 1.573-1.001.572-.26 1.252-.39 2.041-.39.736 0 1.386.13 1.95.39.572.25133 1.053.60667 1.443 1.066.39.45067.684.99233.884 1.625.199.624.299 1.3043.299 2.041v8.567h-4.03v-8.567c0-.6587-.152-1.17-.455-1.534-.304-.37267-.75-.559-1.339-.559-.442 0-.858.09533-1.248.286s-.763.4463-1.118.767v9.607zm24.65 0c-.382 0-.672-.052-.871-.156-.191-.104-.351-.3207-.481-.65l-.286-.741c-.338.286-.663.5373-.975.754s-.637.403-.975.559c-.33.1473-.685.2557-1.066.325-.373.078-.789.117-1.248.117-.616 0-1.175-.078-1.677-.234-.503-.1647-.932-.403-1.287-.715-.347-.312-.616-.6977-.806-1.157-.191-.468-.286-1.0053-.286-1.612 0-.4767.121-.9663.364-1.469.242-.5027.663-.9577 1.261-1.365.598-.416 1.404-.7627 2.418-1.04s2.292-.4333 3.835-.468v-.572c0-.7887-.165-1.3563-.494-1.703-.321-.35533-.78-.533-1.378-.533-.477 0-.867.052-1.17.156-.304.104-.577.221-.819.351-.234.13-.464.247-.689.351-.226.104-.494.156-.806.156-.278 0-.516-.065-.715-.195-.191-.1387-.343-.30767-.455-.507l-.728-1.261c.814-.71933 1.716-1.25233 2.704-1.599.996-.35533 2.062-.533 3.198-.533.814 0 1.547.13433 2.197.403.658.26 1.213.62833 1.664 1.105.459.468.81 1.027 1.053 1.677.242.65.364 1.3607.364 2.132v8.424zm-4.628-2.457c.52 0 .975-.091 1.365-.273s.784-.4767 1.183-.884v-1.872c-.806.0347-1.469.104-1.989.208s-.932.234-1.235.39c-.304.156-.516.3337-.637.533-.113.1993-.169.416-.169.65 0 .4593.125.7843.377.975.251.182.619.273 1.105.273zm14.327 2.665c-.641 0-1.209-.091-1.703-.273-.485-.1907-.897-.455-1.235-.793-.329-.3467-.581-.7627-.754-1.248s-.26-1.027-.26-1.625v-6.968h-1.144c-.208 0-.386-.065-.533-.195-.147-.13867-.221-.338-.221-.598v-1.573l2.145-.416.793-3.289c.104-.416.399-.624.884-.624h2.106v3.939h3.276v2.756h-3.276v6.695c0 .312.074.572.221.78.156.1993.377.299.663.299.147 0 .269-.013.364-.039.104-.0347.191-.0693.26-.104.078-.0433.147-.078.208-.104.069-.0347.147-.052.234-.052.121 0 .217.0303.286.091.078.052.156.1387.234.26l1.222 1.911c-.52.39-1.105.6847-1.755.884-.65.1907-1.322.286-2.015.286z" fill="#121111"/></svg>

<svg width="157" height="25" viewBox="0 0 157 25" fill="none" xmlns="http://www.w3.org/2000/svg">
<path d="M10.478 16.828C11.0847 16.828 11.622 16.776 12.09 16.672C12.558 16.568 13 16.4293 13.416 16.256V13.383H11.544C11.2667 13.383 11.05 13.3093 10.894 13.162C10.738 13.0147 10.66 12.8283 10.66 12.603V10.185H17.394V18.18C16.9087 18.5353 16.4017 18.843 15.873 19.103C15.353 19.3543 14.794 19.5623 14.196 19.727C13.6067 19.8917 12.974 20.013 12.298 20.091C11.6307 20.169 10.9113 20.208 10.14 20.208C8.75333 20.208 7.47067 19.9653 6.292 19.48C5.11333 18.986 4.09067 18.31 3.224 17.452C2.366 16.5853 1.69 15.5627 1.196 14.384C0.710667 13.1967 0.468 11.9097 0.468 10.523C0.468 9.11033 0.702 7.81467 1.17 6.636C1.638 5.44867 2.30533 4.426 3.172 3.568C4.04733 2.71 5.10033 2.04267 6.331 1.566C7.57033 1.08933 8.95267 0.850999 10.478 0.850999C11.2667 0.850999 12.0077 0.915999 12.701 1.046C13.3943 1.176 14.0313 1.35367 14.612 1.579C15.2013 1.80433 15.7387 2.073 16.224 2.385C16.7093 2.697 17.1427 3.035 17.524 3.399L16.25 5.336C16.1287 5.518 15.9813 5.661 15.808 5.765C15.6433 5.869 15.4613 5.921 15.262 5.921C15.002 5.921 14.7333 5.83433 14.456 5.661C14.1093 5.453 13.78 5.27533 13.468 5.128C13.1647 4.972 12.8527 4.84633 12.532 4.751C12.2113 4.65567 11.8733 4.58633 11.518 4.543C11.1627 4.49967 10.764 4.478 10.322 4.478C9.49867 4.478 8.75767 4.62533 8.099 4.92C7.44033 5.206 6.877 5.61333 6.409 6.142C5.94967 6.67067 5.59433 7.30767 5.343 8.053C5.09167 8.78967 4.966 9.613 4.966 10.523C4.966 11.5283 5.10467 12.421 5.382 13.201C5.65933 13.981 6.04067 14.6397 6.526 15.177C7.02 15.7143 7.60067 16.126 8.268 16.412C8.944 16.6893 9.68067 16.828 10.478 16.828ZM24.4898 6.519V20H20.4598V6.519H24.4898ZM24.9578 2.827C24.9578 3.14767 24.8928 3.451 24.7628 3.737C24.6328 4.01433 24.4551 4.26133 24.2298 4.478C24.0044 4.686 23.7401 4.855 23.4368 4.985C23.1421 5.10633 22.8258 5.167 22.4878 5.167C22.1584 5.167 21.8508 5.10633 21.5648 4.985C21.2788 4.855 21.0231 4.686 20.7978 4.478C20.5811 4.26133 20.4078 4.01433 20.2778 3.737C20.1564 3.451 20.0958 3.14767 20.0958 2.827C20.0958 2.49767 20.1564 2.19 20.2778 1.904C20.4078 1.618 20.5811 1.36667 20.7978 1.15C21.0231 0.933333 21.2788 0.764333 21.5648 0.642999C21.8508 0.521666 22.1584 0.461 22.4878 0.461C22.8258 0.461 23.1421 0.521666 23.4368 0.642999C23.7401 0.764333 24.0044 0.933333 24.2298 1.15C24.4551 1.36667 24.6328 1.618 24.7628 1.904C24.8928 2.19 24.9578 2.49767 24.9578 2.827ZM28.0038 20V6.519H30.4998C30.7512 6.519 30.9592 6.57533 31.1238 6.688C31.2972 6.80067 31.4185 6.96967 31.4878 7.195L31.7088 7.923C31.9342 7.689 32.1682 7.47667 32.4108 7.286C32.6535 7.08667 32.9135 6.91767 33.1908 6.779C33.4768 6.63167 33.7802 6.519 34.1008 6.441C34.4302 6.35433 34.7898 6.311 35.1798 6.311C35.9945 6.311 36.6662 6.52333 37.1948 6.948C37.7322 7.364 38.1395 7.923 38.4168 8.625C38.6422 8.209 38.9152 7.85367 39.2358 7.559C39.5652 7.26433 39.9162 7.026 40.2888 6.844C40.6702 6.662 41.0688 6.52767 41.4848 6.441C41.9095 6.35433 42.3298 6.311 42.7458 6.311C43.5172 6.311 44.2018 6.428 44.7998 6.662C45.3978 6.88733 45.8962 7.221 46.2948 7.663C46.7022 8.09633 47.0098 8.63367 47.2178 9.275C47.4258 9.90767 47.5298 10.627 47.5298 11.433V20H43.4998V11.433C43.4998 10.0377 42.9018 9.34 41.7058 9.34C41.1598 9.34 40.7048 9.522 40.3408 9.886C39.9855 10.2413 39.8078 10.757 39.8078 11.433V20H35.7778V11.433C35.7778 10.6617 35.6262 10.12 35.3228 9.808C35.0195 9.496 34.5732 9.34 33.9838 9.34C33.6198 9.34 33.2732 9.42233 32.9438 9.587C32.6232 9.75167 32.3198 9.97267 32.0338 10.25V20H28.0038ZM50.6584 20V0.538999H54.6884V7.949C55.191 7.455 55.7587 7.06067 56.3914 6.766C57.0327 6.46267 57.7824 6.311 58.6404 6.311C59.3424 6.311 59.9924 6.46267 60.5904 6.766C61.1884 7.06933 61.704 7.51567 62.1374 8.105C62.5707 8.68567 62.9087 9.40067 63.1514 10.25C63.4027 11.0993 63.5284 12.0657 63.5284 13.149C63.5284 14.163 63.3854 15.099 63.0994 15.957C62.822 16.815 62.4277 17.5603 61.9164 18.193C61.4137 18.8257 60.807 19.3197 60.0964 19.675C59.3944 20.0303 58.6144 20.208 57.7564 20.208C57.3577 20.208 56.998 20.169 56.6774 20.091C56.3654 20.013 56.075 19.9047 55.8064 19.766C55.5464 19.6187 55.3037 19.4453 55.0784 19.246C54.8617 19.0467 54.6494 18.83 54.4414 18.596L54.2984 19.272C54.2377 19.5493 54.125 19.74 53.9604 19.844C53.8044 19.948 53.5964 20 53.3364 20H50.6584ZM57.2364 9.34C56.9417 9.34 56.673 9.37033 56.4304 9.431C56.1964 9.483 55.9754 9.561 55.7674 9.665C55.568 9.769 55.3817 9.90333 55.2084 10.068C55.035 10.224 54.8617 10.406 54.6884 10.614V16.334C54.9917 16.672 55.321 16.9103 55.6764 17.049C56.0317 17.179 56.4044 17.244 56.7944 17.244C57.167 17.244 57.5094 17.1703 57.8214 17.023C58.1334 16.8757 58.402 16.6417 58.6274 16.321C58.8614 15.9917 59.0434 15.567 59.1734 15.047C59.3034 14.527 59.3684 13.8943 59.3684 13.149C59.3684 12.4383 59.3164 11.8403 59.2124 11.355C59.1084 10.8697 58.961 10.4797 58.7704 10.185C58.5884 9.88167 58.3674 9.665 58.1074 9.535C57.8474 9.405 57.557 9.34 57.2364 9.34ZM75.3084 20C74.9271 20 74.6367 19.948 74.4374 19.844C74.2467 19.74 74.0864 19.5233 73.9564 19.194L73.6704 18.453C73.3324 18.739 73.0074 18.9903 72.6954 19.207C72.3834 19.4237 72.0584 19.61 71.7204 19.766C71.3911 19.9133 71.0357 20.0217 70.6544 20.091C70.2817 20.169 69.8657 20.208 69.4064 20.208C68.7911 20.208 68.2321 20.13 67.7294 19.974C67.2267 19.8093 66.7977 19.571 66.4424 19.259C66.0957 18.947 65.8271 18.5613 65.6364 18.102C65.4457 17.634 65.3504 17.0967 65.3504 16.49C65.3504 16.0133 65.4717 15.5237 65.7144 15.021C65.9571 14.5183 66.3774 14.0633 66.9754 13.656C67.5734 13.24 68.3794 12.8933 69.3934 12.616C70.4074 12.3387 71.6857 12.1827 73.2284 12.148V11.576C73.2284 10.7873 73.0637 10.2197 72.7344 9.873C72.4137 9.51767 71.9544 9.34 71.3564 9.34C70.8797 9.34 70.4897 9.392 70.1864 9.496C69.8831 9.6 69.6101 9.717 69.3674 9.847C69.1334 9.977 68.9037 10.094 68.6784 10.198C68.4531 10.302 68.1844 10.354 67.8724 10.354C67.5951 10.354 67.3567 10.289 67.1574 10.159C66.9667 10.0203 66.8151 9.85133 66.7024 9.652L65.9744 8.391C66.7891 7.67167 67.6904 7.13867 68.6784 6.792C69.6751 6.43667 70.7411 6.259 71.8764 6.259C72.6911 6.259 73.4234 6.39333 74.0734 6.662C74.7321 6.922 75.2867 7.29033 75.7374 7.767C76.1967 8.235 76.5477 8.794 76.7904 9.444C77.0331 10.094 77.1544 10.8047 77.1544 11.576V20H75.3084ZM70.6804 17.543C71.2004 17.543 71.6554 17.452 72.0454 17.27C72.4354 17.088 72.8297 16.7933 73.2284 16.386V14.514C72.4224 14.5487 71.7594 14.618 71.2394 14.722C70.7194 14.826 70.3077 14.956 70.0044 15.112C69.7011 15.268 69.4887 15.4457 69.3674 15.645C69.2547 15.8443 69.1984 16.061 69.1984 16.295C69.1984 16.7543 69.3241 17.0793 69.5754 17.27C69.8267 17.452 70.1951 17.543 70.6804 17.543ZM80.276 24.277V6.519H82.772C83.0234 6.519 83.2314 6.57533 83.396 6.688C83.5694 6.80067 83.6907 6.96967 83.76 7.195L84.059 8.183C84.319 7.897 84.5964 7.637 84.891 7.403C85.1944 7.169 85.515 6.96967 85.853 6.805C86.1997 6.63167 86.568 6.49733 86.958 6.402C87.3567 6.30667 87.79 6.259 88.258 6.259C88.96 6.259 89.61 6.415 90.208 6.727C90.806 7.039 91.3217 7.48967 91.755 8.079C92.1884 8.66833 92.5264 9.392 92.769 10.25C93.0204 11.0993 93.146 12.0657 93.146 13.149C93.146 14.163 93.003 15.099 92.717 15.957C92.4397 16.815 92.0454 17.5603 91.534 18.193C91.0314 18.8257 90.4247 19.3197 89.714 19.675C89.012 20.0303 88.232 20.208 87.374 20.208C86.672 20.208 86.0827 20.1083 85.606 19.909C85.1294 19.7097 84.696 19.441 84.306 19.103V24.277H80.276ZM86.854 9.34C86.5594 9.34 86.2907 9.37033 86.048 9.431C85.814 9.483 85.593 9.561 85.385 9.665C85.1857 9.769 84.9994 9.90333 84.826 10.068C84.6527 10.224 84.4794 10.406 84.306 10.614V16.334C84.6094 16.672 84.9387 16.9103 85.294 17.049C85.6494 17.179 86.022 17.244 86.412 17.244C86.7847 17.244 87.127 17.1703 87.439 17.023C87.751 16.8757 88.0197 16.6417 88.245 16.321C88.479 15.9917 88.661 15.567 88.791 15.047C88.921 14.527 88.986 13.8943 88.986 13.149C88.986 12.4383 88.934 11.8403 88.83 11.355C88.726 10.8697 88.5787 10.4797 88.388 10.185C88.206 9.88167 87.985 9.665 87.725 9.535C87.465 9.405 87.1747 9.34 86.854 9.34ZM113.582 15.099C113.686 15.099 113.79 15.1207 113.894 15.164C113.998 15.1987 114.097 15.2637 114.193 15.359L115.935 17.192C115.172 18.1887 114.214 18.9427 113.062 19.454C111.918 19.9567 110.561 20.208 108.993 20.208C107.554 20.208 106.263 19.9653 105.119 19.48C103.983 18.986 103.017 18.31 102.22 17.452C101.431 16.5853 100.824 15.5627 100.4 14.384C99.9749 13.1967 99.7626 11.9097 99.7626 10.523C99.7626 9.11033 100.005 7.81467 100.491 6.636C100.976 5.44867 101.652 4.426 102.519 3.568C103.394 2.71 104.438 2.04267 105.652 1.566C106.865 1.08933 108.204 0.850999 109.669 0.850999C110.379 0.850999 111.047 0.915999 111.671 1.046C112.303 1.16733 112.893 1.34067 113.439 1.566C113.985 1.78267 114.487 2.047 114.947 2.359C115.406 2.66233 115.813 3.00033 116.169 3.373L114.687 5.362C114.591 5.48333 114.479 5.596 114.349 5.7C114.219 5.79533 114.037 5.843 113.803 5.843C113.647 5.843 113.499 5.80833 113.361 5.739C113.222 5.66967 113.075 5.58733 112.919 5.492C112.763 5.388 112.589 5.27967 112.399 5.167C112.217 5.04567 111.996 4.93733 111.736 4.842C111.484 4.738 111.185 4.65133 110.839 4.582C110.501 4.51267 110.102 4.478 109.643 4.478C108.845 4.478 108.117 4.621 107.459 4.907C106.8 5.18433 106.232 5.58733 105.756 6.116C105.288 6.636 104.919 7.26867 104.651 8.014C104.391 8.75933 104.261 9.59567 104.261 10.523C104.261 11.4937 104.391 12.356 104.651 13.11C104.919 13.864 105.279 14.501 105.73 15.021C106.189 15.5323 106.722 15.9223 107.329 16.191C107.935 16.4597 108.585 16.594 109.279 16.594C109.677 16.594 110.041 16.5767 110.371 16.542C110.7 16.4987 111.003 16.4293 111.281 16.334C111.567 16.2387 111.835 16.1173 112.087 15.97C112.347 15.814 112.607 15.6233 112.867 15.398C112.971 15.3113 113.083 15.242 113.205 15.19C113.326 15.1293 113.452 15.099 113.582 15.099ZM118.203 20V0.538999H122.233V7.702C122.718 7.286 123.242 6.95233 123.806 6.701C124.378 6.441 125.058 6.311 125.847 6.311C126.583 6.311 127.233 6.441 127.797 6.701C128.369 6.95233 128.85 7.30767 129.24 7.767C129.63 8.21767 129.924 8.75933 130.124 9.392C130.323 10.016 130.423 10.6963 130.423 11.433V20H126.393V11.433C126.393 10.7743 126.241 10.263 125.938 9.899C125.634 9.52633 125.188 9.34 124.599 9.34C124.157 9.34 123.741 9.43533 123.351 9.626C122.961 9.81667 122.588 10.0723 122.233 10.393V20H118.203ZM142.853 20C142.471 20 142.181 19.948 141.982 19.844C141.791 19.74 141.631 19.5233 141.501 19.194L141.215 18.453C140.877 18.739 140.552 18.9903 140.24 19.207C139.928 19.4237 139.603 19.61 139.265 19.766C138.935 19.9133 138.58 20.0217 138.199 20.091C137.826 20.169 137.41 20.208 136.951 20.208C136.335 20.208 135.776 20.13 135.274 19.974C134.771 19.8093 134.342 19.571 133.987 19.259C133.64 18.947 133.371 18.5613 133.181 18.102C132.99 17.634 132.895 17.0967 132.895 16.49C132.895 16.0133 133.016 15.5237 133.259 15.021C133.501 14.5183 133.922 14.0633 134.52 13.656C135.118 13.24 135.924 12.8933 136.938 12.616C137.952 12.3387 139.23 12.1827 140.773 12.148V11.576C140.773 10.7873 140.608 10.2197 140.279 9.873C139.958 9.51767 139.499 9.34 138.901 9.34C138.424 9.34 138.034 9.392 137.731 9.496C137.427 9.6 137.154 9.717 136.912 9.847C136.678 9.977 136.448 10.094 136.223 10.198C135.997 10.302 135.729 10.354 135.417 10.354C135.139 10.354 134.901 10.289 134.702 10.159C134.511 10.0203 134.359 9.85133 134.247 9.652L133.519 8.391C134.333 7.67167 135.235 7.13867 136.223 6.792C137.219 6.43667 138.285 6.259 139.421 6.259C140.235 6.259 140.968 6.39333 141.618 6.662C142.276 6.922 142.831 7.29033 143.282 7.767C143.741 8.235 144.092 8.794 144.335 9.444C144.577 10.094 144.699 10.8047 144.699 11.576V20H142.853ZM138.225 17.543C138.745 17.543 139.2 17.452 139.59 17.27C139.98 17.088 140.374 16.7933 140.773 16.386V14.514C139.967 14.5487 139.304 14.618 138.784 14.722C138.264 14.826 137.852 14.956 137.549 15.112C137.245 15.268 137.033 15.4457 136.912 15.645C136.799 15.8443 136.743 16.061 136.743 16.295C136.743 16.7543 136.868 17.0793 137.12 17.27C137.371 17.452 137.739 17.543 138.225 17.543ZM152.552 20.208C151.911 20.208 151.343 20.117 150.849 19.935C150.364 19.7443 149.952 19.48 149.614 19.142C149.285 18.7953 149.033 18.3793 148.86 17.894C148.687 17.4087 148.6 16.867 148.6 16.269V9.301H147.456C147.248 9.301 147.07 9.236 146.923 9.106C146.776 8.96733 146.702 8.768 146.702 8.508V6.935L148.847 6.519L149.64 3.23C149.744 2.814 150.039 2.606 150.524 2.606H152.63V6.545H155.906V9.301H152.63V15.996C152.63 16.308 152.704 16.568 152.851 16.776C153.007 16.9753 153.228 17.075 153.514 17.075C153.661 17.075 153.783 17.062 153.878 17.036C153.982 17.0013 154.069 16.9667 154.138 16.932C154.216 16.8887 154.285 16.854 154.346 16.828C154.415 16.7933 154.493 16.776 154.58 16.776C154.701 16.776 154.797 16.8063 154.866 16.867C154.944 16.919 155.022 17.0057 155.1 17.127L156.322 19.038C155.802 19.428 155.217 19.7227 154.567 19.922C153.917 20.1127 153.245 20.208 152.552 20.208Z" fill="#121111"/>
</svg>
